svg_80x80/apache-beam.svg

<svg viewBox="0 0 80 80" xmlns="http://www.w3.org/2000/svg">
<rect width="100%" height="100%" fill="white"/>
<path d="M19 30.0125L34.5936 40L51.4261 29.2152V20.7983L19 10.4243V30.0125Z" fill="#FEE900"/>
<path d="M50.5028 29.8031L34.5936 40L50.6686 50.2934L51.4261 50.7767V59.2016L50.0925 59.6204L19 69.3742V10.4243L50.3134 20.4439L51.2762 20.75L51.4261 20.7983V29.2152L51.2762 29.3118L50.5028 29.8031Z" fill="#FFC400"/>
<path opacity="0.75" d="M19 49.9632L34.5936 39.9758L19 29.9965V30.2542V49.9632Z" fill="url(#paint0_linear_25_346)"/>
<path d="M51.4261 50.2209V59.7412L50.0925 59.6204L19 56.8014V53.1608L50.6686 50.2934L51.4261 50.2209Z" fill="#FFE082"/>
<path d="M51.2762 20.3553V29.8756L50.5028 29.8031L19 26.9438V23.2871L50.3134 20.4439L51.2762 20.3553Z" fill="#FFE082"/>
<path d="M47.7172 54.9811C47.7172 57.0672 49.3744 58.7586 51.4183 58.7586V51.1956C49.3744 51.1956 47.7172 52.887 47.7172 54.9731V54.9811Z" fill="white"/>
<path d="M47.7172 25.1155C47.7172 27.2016 49.3744 28.893 51.4183 28.893V21.33C49.3744 21.33 47.7172 23.0214 47.7172 25.1075V25.1155Z" fill="white"/>
<path d="M63.7921 53.2817C63.8473 56.0765 63.3502 58.807 62.3085 61.4005C61.3536 63.6718 59.8621 65.7015 57.984 67.264C55.948 68.9232 53.6358 70.1153 51.1263 70.808C48.2932 71.5973 45.3813 72 42.4535 72C42.3115 72 42.1615 72 42.0195 71.9919H19V69.3823L19.0552 69.3582L50.7948 59.266C51.1184 59.1613 51.3393 58.8553 51.3393 58.5089V51.2761C51.3393 50.9862 51.1815 50.7204 50.9369 50.5754L34.5541 40L50.9369 29.4246C51.1815 29.2796 51.3393 29.0058 51.3393 28.7239V21.4911C51.3393 21.1367 51.1184 20.8387 50.7948 20.7259L19 10.6177V8H40.9462C43.874 8 46.7938 8.34634 49.6427 9.03096C52.1206 9.61087 54.4249 10.674 56.5004 12.1802C58.3549 13.5736 59.8464 15.4422 60.8012 17.5847C61.835 20.0171 62.3559 22.7073 62.2927 25.3572C62.3243 28.2004 61.5194 30.9469 59.9568 33.2988C58.4496 35.5782 56.2321 37.3823 53.3674 38.663C54.9694 39.114 56.4767 39.8228 57.8498 40.7813C59.1519 41.6995 60.2725 42.8351 61.18 44.1561C62.0639 45.4609 62.7268 46.9026 63.145 48.4329C63.579 50.0116 63.8 51.6386 63.7921 53.2817Z" fill="#FF6D00"/>
<linearGradient id="paint0_linear_25_346" x1="18.5044" y1="39.466" x2="34.0471" y2="39.466" gradientUnits="userSpaceOnUse">
<stop stop-color="#FFC400"/>
<stop offset="0.14" stop-color="#FECD00"/>
<stop offset="0.37" stop-color="#FED400"/>
<stop offset="1" stop-color="#FED600"/>
</linearGradient>
</svg>

<svg xmlns="http://www.w3.org/2000/svg" viewBox="0 0 80 80">
  <rect width="100%" height="100%" fill="#fff"/>
  <path fill="#FEE900" d="m19 30 15.6 10 16.8-10.8v-8.4L19 10.4V30Z"/>
  <path fill="#FFC400" d="M50.5 29.8 34.5 40l16.2 10.3.7.5v8.4l-1.3.4L19 69.4v-59l31.3 10 1 .4h.1v8.4l-.1.1-.8.5Z"/>
  <path fill="url(#a)" d="m19 50 15.6-10L19 30v20Z" opacity=".8"/>
  <path fill="#FFE082" d="M51.4 50.2v9.5h-1.3L19 56.7v-3.6l31.7-3h.7ZM51.3 20.4v9.5l-.8-.1L19 26.9v-3.6l31.3-2.9h1Z"/>
  <path fill="#fff" d="M47.7 55c0 2 1.7 3.8 3.7 3.8v-7.6c-2 0-3.7 1.7-3.7 3.8ZM47.7 25.1c0 2.1 1.7 3.8 3.7 3.8v-7.6c-2 0-3.7 1.7-3.7 3.8Z"/>
  <path fill="#FF6D00" d="M63.8 53.3c0 2.8-.4 5.5-1.5 8.1-1 2.3-2.4 4.3-4.3 5.9-2 1.6-4.4 2.8-6.9 3.5-2.8.8-5.7 1.2-8.6 1.2H19v-2.6l31.8-10.1c.3-.1.5-.4.5-.8v-7.2c0-.3-.1-.6-.4-.7L34.6 40l16.3-10.6c.3-.1.4-.4.4-.7v-7.2c0-.4-.2-.7-.5-.8L19 10.7V8h22c2.9 0 5.8.3 8.6 1a19 19 0 0 1 6.9 3.2c1.9 1.4 3.3 3.2 4.3 5.4 1 2.4 1.6 5.1 1.5 7.8a14 14 0 0 1-9 13.3 13.4 13.4 0 0 1 9.8 9.8c.5 1.5.7 3.1.7 4.8Z"/>
  <linearGradient id="a" x1="18.5" x2="34" y1="39.5" y2="39.5" gradientUnits="userSpaceOnUse">
    <stop stop-color="#FFC400"/>
    <stop offset=".1" stop-color="#FECD00"/>
    <stop offset=".4" stop-color="#FED400"/>
    <stop offset="1" stop-color="#FED600"/>
  </linearGradient>
</svg>
